X:1
T:Will The Circle Be Unbroken
C:Unknown
M:4/4
L:1/4
K:D
|A, B,|"D"D2 D2-|D2 F E|D2 F2-|F2 F E|"G"D3 E
w:C.~Will the cir-cle _be un-bro-ken, _by and by Lord,
w:1.~I was stand-ing _by my win-dow, _on a cold and
w:2.~Lord I told that _un-der-tak-er, _please _drive _
w:3.~I~fol-lowed close __be-_hind her, _tried to hold up
w:4.~I went home, __My~home was emp-ty, _now my mo-ther
|D2 B,2|"D"A,4-|A,2 A, B,|D2 D2-|D2 F A|A2 F2-
w:by and by. _There's a bet-ter _home a wait-ing
w:cloud-y day. _When I saw that _hearse come roll-ing,
w:__slow. _For this bo-dy _that~you are haul-ing,
w:and be brave. _but I could not _hide my sor-row,
w:she has gone. _All my bro-thers _and~sis-ters cry-ing,
|F2 "^TAG"D E|F2 F2|1"^VERSE"E2 ("A"F E)|"D"D4-|D2|2"^CHORUS"F2 ("A"F E)|"D"D4-|D2|
w:_in the sky, Lord, * * * * * in the _sky.
w:_for to carry my mo-ther a-way.
w:_Lord I hate to see her go.
w:_when they laid her in the _grave.
w:_what a home, so sad and a-lone.
